; generated by PrusaSlicer 2.5.0+linux-x64-GTK3 on 2023-06-30 at 22:46:18 UTC


;
;
; 

; external perimeters extrusion width = 0.60mm
; perimeters extrusion width = 0.50mm
; infill extrusion width = 0.50mm
; solid infill extrusion width = 0.50mm
; top infill extrusion width = 0.45mm
; first layer extrusion width = 0.42mm

M73 P0 R34
M73 Q0 S34
M201 X1000 Y1000 Z200 E5000 ; sets maximum accelerations, mm/sec^2
M203 X200 Y200 Z12 E120 ; sets maximum feedrates, mm / sec
M204 P1250 R1250 T1250 ; sets acceleration (P, T) and retract acceleration (R), mm/sec^2
M205 X8.00 Y8.00 Z0.40 E4.50 ; sets the jerk limits, mm/sec
M205 S0 T0 ; sets the minimum extruding and travel feed rate, mm/sec
M107
;TYPE:Custom
M862.3 P "MK3S" ; printer model check
M862.1 P0.4 ; nozzle diameter check
M115 U3.11.0 ; tell printer latest fw version
G90 ; use absolute coordinates
M83 ; extruder relative mode
M104 S215 ; set extruder temp
M140 S60 ; set bed temp
M190 S60 ; wait for bed temp
M109 S215 ; wait for extruder temp
G28 W ; home all without mesh bed level
G80 ; mesh bed leveling

G1 Z0.2 F720
G1 Y-3 F1000 ; go outside print area
G92 E0
G1 X60 E9 F1000 ; intro line
G1 X100 E12.5 F1000 ; intro line

G92 E0
M221 S95

; Don't change E values below. Excessive value can damage the printer.

M907 E538 ; set extruder motor current
G21 ; set units to millimeters
G90 ; use absolute coordinates
M83 ; use relative distances for extrusion
M900 K0.05 ; Filament gcode LA 1.5
M900 K30 ; Filament gcode LA 1.0
M107
;LAYER_CHANGE
;Z:0.2
;HEIGHT:0.2
;BEFORE_LAYER_CHANGE
G92 E0.0
;0.2


G1 E-.8 F2100
G1 Z.4 F720
;AFTER_LAYER_CHANGE
;0.2
G1 X97.294 Y81.993 F10800
G1 Z.2 F720
G1 E.8 F2100
M204 S800
;TYPE:Skirt/Brim
;WIDTH:0.42
G1 F1200
G1 X98.34 Y81.117 E.04278
G1 X99.28 Y80.923 E.03008
G1 X150.72 Y80.923 E1.6129
G1 X152.028 Y81.315 E.04278
G1 X152.904 Y82.36 E.04278
G1 X153.098 Y83.3 E.03008
G1 X153.098 Y126.7 E1.36078
G1 X152.706 Y128.007 E.04278
G1 X151.66 Y128.883 E.04278
G1 X150.72 Y129.077 E.03008
G1 X99.28 Y129.077 E1.6129
G1 X97.972 Y128.685 E.04278
G1 X97.096 Y127.64 E.04278
G1 X96.902 Y126.7 E.03008
G1 X96.902 Y83.3 E1.36078
G1 X97.277 Y82.05 E.0409
M204 S1000
; printing object snd-squeal-clip v18.stl id:0 copy 11
;WIPE_START
G1 F8640
G1 X98.34 Y81.117 E-.32671
G1 X99.28 Y80.923 E-.22155
G1 X100.197 Y80.923 E-.21174
;WIPE_END
G1 E-.04 F2100
G1 Z.6 F720
G1 X138.377 Y124.759 F10800
G1 Z.2 F720
G1 E.8 F2100
M204 S800
;TYPE:Perimeter
;WIDTH:0.452777
G1 F1200
G1 X138.585 Y124.928 E.00914
G1 X138.711 Y125.106 E.00743
G1 X138.779 Y125.315 E.00747
G1 X138.782 Y125.521 E.00705
;WIDTH:0.449966
G1 X138.68 Y125.8 E.01004
G1 X138.604 Y125.898 E.00421
G1 X138.376 Y125.898 E.00772
;WIDTH:0.452777
G1 X138.377 Y124.819 E.03677
M204 S1000
;WIPE_START
G1 F8640
G1 X138.585 Y124.928 E-.05426
G1 X138.711 Y125.106 E-.05034
G1 X138.779 Y125.315 E-.05063
G1 X138.782 Y125.521 E-.04777
G1 X138.68 Y125.8 E-.06852
G1 X138.604 Y125.898 E-.02871
G1 X138.376 Y125.898 E-.05267
G1 X138.377 Y124.819 E-.24914
;WIPE_END
G1 E-.19795 F2100
G1 Z.6 F720
G1 X149.855 Y124.811 F10800
G1 Z.2 F720
G1 E.8 F2100
M204 S800
;WIDTH:0.452776
G1 F1200
G1 X149.917 Y124.759 E.00276
G1 X149.918 Y125.898 E.03882
;WIDTH:0.449964
G1 X149.754 Y125.898 E.00557
G1 X149.646 Y125.852 E.00396
G1 X149.527 Y125.591 E.0097
;WIDTH:0.452776
G1 X149.507 Y125.378 E.00729
G1 X149.559 Y125.158 E.00771
G1 X149.684 Y124.956 E.00808
G1 X149.809 Y124.85 E.00561
M204 S1000
;WIPE_START
G1 F8640
G1 X149.917 Y124.759 E-.03258
G1 X149.918 Y125.898 E-.263
G1 X149.754 Y125.898 E-.038
G1 X149.646 Y125.852 E-.02701
G1 X149.527 Y125.591 E-.06619
G1 X149.507 Y125.378 E-.04941
G1 X149.559 Y125.158 E-.05224
G1 X149.684 Y124.956 E-.05477
G1 X149.809 Y124.85 E-.038
;WIPE_END
G1 E-.17879 F2100
G1 Z.6 F720
G1 X149.592 Y121.252 F10800
G1 Z.2 F720
G1 E.8 F2100
M204 S800
;TYPE:External perimeter
;WIDTH:0.49646
G1 F1200
G1 X138.702 Y121.252 E.41068
;WIDTH:0.535367
G1 X138.608 Y121.271 E.00393
;WIDTH:0.574274
G1 X138.514 Y121.291 E.00424
G1 X138.495 Y121.385 E.00424
;WIDTH:0.535367
G1 X138.475 Y121.479 E.00393
;WIDTH:0.49646
G1 X138.475 Y124.273 E.10539
;WIDTH:0.499896
G1 X138.477 Y124.313 E.0015
G1 X138.655 Y124.468 E.00898
;WIDTH:0.459948
G1 X138.833 Y124.623 E.0082
;WIDTH:0.419999
G1 X139.038 Y124.887 E.01048
G1 X139.158 Y125.208 E.01072
G1 X139.17 Y125.643 E.01367
G1 X139.001 Y126.05 E.01382
G1 X138.77 Y126.29 E.01043
G1 X137.984 Y126.29 E.02467
G1 X137.983 Y125.027 E.0396
;WIDTH:0.45823
G1 X138.003 Y124.65 E.01304
;WIDTH:0.49646
G1 X138.022 Y124.273 E.01424
G1 X138.022 Y121.479 E.10539
;WIDTH:0.535367
G1 X138.041 Y121.158 E.01316
;WIDTH:0.574274
M73 Q1 S34
G1 X138.061 Y120.837 E.0142
G1 X138.381 Y120.818 E.0142
;WIDTH:0.535367
G1 X138.702 Y120.798 E.01316
;WIDTH:0.49646
G1 X149.592 Y120.798 E.41068
;WIDTH:0.535368
G1 X149.913 Y120.818 E.01316
;WIDTH:0.574275
M73 P1 R34
G1 X150.233 Y120.837 E.0142
G1 X150.253 Y121.158 E.0142
;WIDTH:0.535367
G1 X150.272 Y121.479 E.01316
;WIDTH:0.496459
G1 X150.272 Y124.273 E.10539
;WIDTH:0.499895
G1 X150.291 Y124.69 E.01584
;WIDTH:0.459947
G1 X150.311 Y125.027 E.01173
;WIDTH:0.419999
G1 X150.311 Y126.29 E.0396
G1 X149.524 Y126.29 E.02467
G1 X149.293 Y126.05 E.01043
G1 X149.124 Y125.643 E.01382
G1 X149.114 Y125.394 E.00783
G1 X149.18 Y125.051 E.01094
G1 X149.357 Y124.737 E.01128
;WIDTH:0.426802
G1 X149.713 Y124.422 E.01519
;WIDTH:0.461631
G1 X149.766 Y124.348 E.00318
;WIDTH:0.496459
G1 X149.819 Y124.273 E.00344
G1 X149.819 Y121.479 E.10539
;WIDTH:0.535367
G1 X149.799 Y121.385 E.00393
;WIDTH:0.574275
G1 X149.78 Y121.291 E.00424
G1 X149.686 Y121.271 E.00424
;WIDTH:0.535368
G1 X149.651 Y121.264 E.00147
M204 S1000
; stop printing object snd-squeal-clip v18.stl id:0 copy 11
; printing object snd-squeal-clip v18.stl id:0 copy 3
;WIPE_START
G1 F8640
G1 X146.359 Y121.26 E-.76
;WIPE_END
G1 E-.04 F2100
G1 Z.6 F720
G1 X138.377 Y112.409 F10800
G1 Z.2 F720
G1 E.8 F2100
M204 S800
;TYPE:Perimeter
;WIDTH:0.452777
G1 F1200
G1 X138.585 Y112.578 E.00914
G1 X138.711 Y112.756 E.00743
G1 X138.779 Y112.965 E.00747
G1 X138.782 Y113.171 E.00705
;WIDTH:0.449966
G1 X138.68 Y113.45 E.01004
G1 X138.604 Y113.548 E.00421
G1 X138.376 Y113.548 E.00772
;WIDTH:0.452777
G1 X138.377 Y112.469 E.03677
M204 S1000
;WIPE_START
G1 F8640
G1 X138.585 Y112.578 E-.05426
G1 X138.711 Y112.756 E-.05034
G1 X138.779 Y112.965 E-.05063
G1 X138.782 Y113.171 E-.04777
G1 X138.68 Y113.45 E-.06852
G1 X138.604 Y113.548 E-.02871
G1 X138.376 Y113.548 E-.05267
G1 X138.377 Y112.469 E-.24914
;WIPE_END
G1 E-.19795 F2100
G1 Z.6 F720
G1 X149.855 Y112.461 F10800
G1 Z.2 F720
G1 E.8 F2100
M204 S800
;WIDTH:0.452776
G1 F1200
G1 X149.917 Y112.409 E.00276
G1 X149.918 Y113.548 E.03882
;WIDTH:0.449964
G1 X149.754 Y113.548 E.00557
G1 X149.646 Y113.502 E.00396
G1 X149.527 Y113.241 E.0097
;WIDTH:0.452776
G1 X149.507 Y113.028 E.00729
G1 X149.559 Y112.808 E.00771
G1 X149.684 Y112.606 E.00808
G1 X149.809 Y112.5 E.00561
M204 S1000
;WIPE_START
G1 F8640
G1 X149.917 Y112.409 E-.03258
G1 X149.918 Y113.548 E-.263
G1 X149.754 Y113.548 E-.038
G1 X149.646 Y113.502 E-.02701
G1 X149.527 Y113.241 E-.06619
G1 X149.507 Y113.028 E-.04941
G1 X149.559 Y112.808 E-.05224
G1 X149.684 Y112.606 E-.05477
G1 X149.809 Y112.5 E-.038
;WIPE_END
G1 E-.17879 F2100
G1 Z.6 F720
G1 X149.592 Y108.902 F10800
G1 Z.2 F720
G1 E.8 F2100
M204 S800
;TYPE:External perimeter
;WIDTH:0.49646
G1 F1200
G1 X138.702 Y108.902 E.41068
;WIDTH:0.535367
G1 X138.608 Y108.921 E.00393
;WIDTH:0.574274
G1 X138.514 Y108.941 E.00424
G1 X138.495 Y109.035 E.00424
;WIDTH:0.535367
G1 X138.475 Y109.129 E.00393
;WIDTH:0.49646
G1 X138.475 Y111.923 E.10539
;WIDTH:0.499896
G1 X138.477 Y111.963 E.0015
G1 X138.655 Y112.118 E.00898
;WIDTH:0.459948
G1 X138.833 Y112.273 E.0082
;WIDTH:0.419999
G1 X139.038 Y112.537 E.01048
G1 X139.158 Y112.858 E.01072
G1 X139.17 Y113.293 E.01367
G1 X139.001 Y113.7 E.01382
G1 X138.77 Y113.94 E.01043
G1 X137.984 Y113.94 E.02467
G1 X137.983 Y112.677 E.0396
;WIDTH:0.45823
G1 X138.003 Y112.3 E.01304
;WIDTH:0.49646
G1 X138.022 Y111.923 E.01424
G1 X138.022 Y109.129 E.10539
;WIDTH:0.535367
G1 X138.041 Y108.808 E.01316
;WIDTH:0.574274
G1 X138.061 Y108.487 E.0142
G1 X138.381 Y108.468 E.0142
;WIDTH:0.535367
G1 X138.702 Y108.448 E.01316
;WIDTH:0.49646
G1 X149.592 Y108.448 E.41068
;WIDTH:0.535368
G1 X149.913 Y108.468 E.01316
;WIDTH:0.574275
G1 X150.233 Y108.487 E.0142
G1 X150.253 Y108.808 E.0142
;WIDTH:0.535367
G1 X150.272 Y109.129 E.01316
;WIDTH:0.496459
G1 X150.272 Y111.923 E.10539
;WIDTH:0.499895
G1 X150.291 Y112.34 E.01584
;WIDTH:0.459947
G1 X150.311 Y112.677 E.01173
;WIDTH:0.419999
G1 X150.311 Y113.94 E.0396
G1 X149.524 Y113.94 E.02467
G1 X149.293 Y113.7 E.01043
G1 X149.124 Y113.293 E.01382
G1 X149.114 Y113.044 E.00783
G1 X149.18 Y112.701 E.01094
G1 X149.357 Y112.387 E.01128
;WIDTH:0.426802
G1 X149.713 Y112.072 E.01519
;WIDTH:0.461631
G1 X149.766 Y111.998 E.00318
;WIDTH:0.496459
G1 X149.819 Y111.923 E.00344
G1 X149.819 Y109.129 E.10539
;WIDTH:0.535367
G1 X149.799 Y109.035 E.00393
;WIDTH:0.574275
G1 X149.78 Y108.941 E.00424
G1 X149.686 Y108.921 E.00424
;WIDTH:0.535368
G1 X149.651 Y108.914 E.00147
M204 S1000
; stop printing object snd-squeal-clip v18.stl id:0 copy 3
; printing object snd-squeal-clip v18.stl id:0 copy 2
;WIPE_START
G1 F8640
G1 X146.359 Y108.91 E-.76
;WIPE_END
G1 E-.04 F2100
G1 Z.6 F720
G1 X138.377 Y100.059 F10800
G1 Z.2 F720
G1 E.8 F2100
M204 S800
;TYPE:Perimeter
;WIDTH:0.452777
G1 F1200
G1 X138.585 Y100.228 E.00914
G1 X138.711 Y100.406 E.00743
G1 X138.779 Y100.615 E.00747
G1 X138.782 Y100.821 E.00705
;WIDTH:0.449966
G1 X138.68 Y101.1 E.01004
G1 X138.604 Y101.198 E.00421
G1 X138.376 Y101.198 E.00772
;WIDTH:0.452777
G1 X138.377 Y100.119 E.03677
M204 S1000
;WIPE_START
G1 F8640
G1 X138.585 Y100.228 E-.05426
G1 X138.711 Y100.406 E-.05034
G1 X138.779 Y100.615 E-.05063
G1 X138.782 Y100.821 E-.04777
G1 X138.68 Y101.1 E-.06852
G1 X138.604 Y101.198 E-.02871
G1 X138.376 Y101.198 E-.05267
G1 X138.377 Y100.119 E-.24914
;WIPE_END
G1 E-.19795 F2100
G1 Z.6 F720
G1 X149.855 Y100.111 F10800
G1 Z.2 F720
G1 E.8 F2100
M204 S800
;WIDTH:0.452776
G1 F1200
G1 X149.917 Y100.059 E.00276
G1 X149.918 Y101.198 E.03882
;WIDTH:0.449964
G1 X149.754 Y101.198 E.00557
G1 X149.646 Y101.152 E.00396
G1 X149.527 Y100.891 E.0097
;WIDTH:0.452776
G1 X149.507 Y100.678 E.00729
G1 X149.559 Y100.458 E.00771
G1 X149.684 Y100.256 E.00808
G1 X149.809 Y100.15 E.00561
M204 S1000
;WIPE_START
G1 F8640
G1 X149.917 Y100.059 E-.03258
G1 X149.918 Y101.198 E-.263
G1 X149.754 Y101.198 E-.038
G1 X149.646 Y101.152 E-.02701
G1 X149.527 Y100.891 E-.06619
G1 X149.507 Y100.678 E-.04941
G1 X149.559 Y100.458 E-.05224
G1 X149.684 Y100.256 E-.05477
G1 X149.809 Y100.15 E-.038
;WIPE_END
G1 E-.17879 F2100
G1 Z.6 F720
G1 X149.592 Y96.552 F10800
G1 Z.2 F720
G1 E.8 F2100
M204 S800
;TYPE:External perimeter
;WIDTH:0.49646
G1 F1200
G1 X138.702 Y96.552 E.41068
;WIDTH:0.535367
G1 X138.608 Y96.571 E.00393
;WIDTH:0.574274
G1 X138.514 Y96.591 E.00424
G1 X138.495 Y96.685 E.00424
;WIDTH:0.535367
G1 X138.475 Y96.779 E.00393
;WIDTH:0.49646
G1 X138.475 Y99.573 E.10539
;WIDTH:0.499896
G1 X138.477 Y99.613 E.0015
G1 X138.655 Y99.768 E.00898
;WIDTH:0.459948
G1 X138.833 Y99.923 E.0082
;WIDTH:0.419999
G1 X139.038 Y100.187 E.01048
G1 X139.158 Y100.508 E.01072
G1 X139.17 Y100.943 E.01367
G1 X139.001 Y101.35 E.01382
G1 X138.77 Y101.59 E.01043
G1 X137.984 Y101.59 E.02467
G1 X137.983 Y100.327 E.0396
;WIDTH:0.45823
G1 X138.003 Y99.95 E.01304
;WIDTH:0.49646
G1 X138.022 Y99.573 E.01424
G1 X138.022 Y96.779 E.10539
;WIDTH:0.535367
G1 X138.041 Y96.458 E.01316
;WIDTH:0.574274
G1 X138.061 Y96.137 E.0142
G1 X138.381 Y96.118 E.0142
;WIDTH:0.535367
G1 X138.702 Y96.098 E.01316
;WIDTH:0.49646
G1 X149.592 Y96.098 E.41068
;WIDTH:0.535368
G1 X149.913 Y96.118 E.01316
;WIDTH:0.574275
G1 X150.233 Y96.137 E.0142
G1 X150.253 Y96.458 E.0142
;WIDTH:0.535367
G1 X150.272 Y96.779 E.01316
;WIDTH:0.496459
G1 X150.272 Y99.573 E.10539
;WIDTH:0.499895
G1 X150.291 Y99.99 E.01584
;WIDTH:0.459947
G1 X150.311 Y100.327 E.01173
;WIDTH:0.419999
G1 X150.311 Y101.59 E.0396
G1 X149.524 Y101.59 E.02467
G1 X149.293 Y101.35 E.01043
G1 X149.124 Y100.943 E.01382
G1 X149.114 Y100.694 E.00783
G1 X149.18 Y100.351 E.01094
G1 X149.357 Y100.037 E.01128
;WIDTH:0.426802
G1 X149.713 Y99.722 E.01519
;WIDTH:0.461631
G1 X149.766 Y99.648 E.00318
;WIDTH:0.496459
G1 X149.819 Y99.573 E.00344
G1 X149.819 Y96.779 E.10539
;WIDTH:0.535367
G1 X149.799 Y96.685 E.00393
;WIDTH:0.574275
G1 X149.78 Y96.591 E.00424
G1 X149.686 Y96.571 E.00424
;WIDTH:0.535368
G1 X149.651 Y96.564 E.00147
M204 S1000
; stop printing object snd-squeal-clip v18.stl id:0 copy 2
; printing object snd-squeal-clip v18.stl id:0 copy 5
;WIPE_START
G1 F8640
G1 X146.359 Y96.56 E-.76
;WIPE_END
G1 E-.04 F2100
G1 Z.6 F720
G1 X138.377 Y87.709 F10800
G1 Z.2 F720
G1 E.8 F2100
M204 S800
;TYPE:Perimeter
;WIDTH:0.452777
G1 F1200
G1 X138.585 Y87.878 E.00914
G1 X138.711 Y88.056 E.00743
G1 X138.779 Y88.265 E.00747
G1 X138.782 Y88.471 E.00705
;WIDTH:0.449966
G1 X138.68 Y88.75 E.01004
G1 X138.604 Y88.848 E.00421
G1 X138.376 Y88.848 E.00772
;WIDTH:0.452777
G1 X138.377 Y87.769 E.03677
M204 S1000
;WIPE_START
G1 F8640
G1 X138.585 Y87.878 E-.05426
G1 X138.711 Y88.056 E-.05034
G1 X138.779 Y88.265 E-.05063
G1 X138.782 Y88.471 E-.04777
G1 X138.68 Y88.75 E-.06852
G1 X138.604 Y88.848 E-.02871
G1 X138.376 Y88.848 E-.05267
G1 X138.377 Y87.769 E-.24914
;WIPE_END
G1 E-.19795 F2100
G1 Z.6 F720
G1 X149.855 Y87.761 F10800
G1 Z.2 F720
G1 E.8 F2100
M204 S800
;WIDTH:0.452776
G1 F1200
G1 X149.917 Y87.709 E.00276
G1 X149.918 Y88.848 E.03882
;WIDTH:0.449964
G1 X149.754 Y88.848 E.00557
G1 X149.646 Y88.802 E.00396
G1 X149.527 Y88.541 E.0097
;WIDTH:0.452776
G1 X149.507 Y88.328 E.00729
G1 X149.559 Y88.108 E.00771
G1 X149.684 Y87.906 E.00808
G1 X149.809 Y87.8 E.00561
M204 S1000
;WIPE_START
G1 F8640
G1 X149.917 Y87.709 E-.03258
G1 X149.918 Y88.848 E-.263
G1 X149.754 Y88.848 E-.038
G1 X149.646 Y88.802 E-.02701
G1 X149.527 Y88.541 E-.06619
G1 X149.507 Y88.328 E-.04941
G1 X149.559 Y88.108 E-.05224
G1 X149.684 Y87.906 E-.05477
G1 X149.809 Y87.8 E-.038
;WIPE_END
G1 E-.17879 F2100
G1 Z.6 F720
G1 X149.592 Y84.202 F10800
G1 Z.2 F720
G1 E.8 F2100
M204 S800
;TYPE:External perimeter
;WIDTH:0.49646
G1 F1200
G1 X138.702 Y84.202 E.41068
;WIDTH:0.535367
G1 X138.608 Y84.221 E.00393
;WIDTH:0.574274
G1 X138.514 Y84.241 E.00424
G1 X138.495 Y84.335 E.00424
;WIDTH:0.535367
G1 X138.475 Y84.429 E.00393
;WIDTH:0.49646
G1 X138.475 Y87.223 E.10539
;WIDTH:0.499896
G1 X138.477 Y87.263 E.0015
G1 X138.655 Y87.418 E.00898
;WIDTH:0.459948
G1 X138.833 Y87.573 E.0082
;WIDTH:0.419999
G1 X139.038 Y87.837 E.01048
G1 X139.158 Y88.158 E.01072
G1 X139.17 Y88.593 E.01367
G1 X139.001 Y89 E.01382
G1 X138.77 Y89.24 E.01043
G1 X137.984 Y89.24 E.02467
G1 X137.983 Y87.977 E.0396
;WIDTH:0.45823
G1 X138.003 Y87.6 E.01304
;WIDTH:0.49646
G1 X138.022 Y87.223 E.01424
G1 X138.022 Y84.429 E.10539
;WIDTH:0.535367
G1 X138.041 Y84.108 E.01316
;WIDTH:0.574274
G1 X138.061 Y83.787 E.0142
G1 X138.381 Y83.768 E.0142
;WIDTH:0.535367
G1 X138.702 Y83.748 E.01316
;WIDTH:0.49646
G1 X149.592 Y83.748 E.41068
;WIDTH:0.535368
G1 X149.913 Y83.768 E.01316
;WIDTH:0.574275
G1 X150.233 Y83.787 E.0142
G1 X150.253 Y84.108 E.0142
;WIDTH:0.535367
G1 X150.272 Y84.429 E.01316
;WIDTH:0.496459
G1 X150.272 Y87.223 E.10539
;WIDTH:0.499895
G1 X150.291 Y87.64 E.01584
;WIDTH:0.459947
G1 X150.311 Y87.977 E.01173
;WIDTH:0.419999
G1 X150.311 Y89.24 E.0396
G1 X149.524 Y89.24 E.02467
G1 X149.293 Y89 E.01043
G1 X149.124 Y88.593 E.01382
G1 X149.114 Y88.344 E.00783
G1 X149.18 Y88.001 E.01094
G1 X149.357 Y87.687 E.01128
;WIDTH:0.426802
G1 X149.713 Y87.372 E.01519
;WIDTH:0.461631
G1 X149.766 Y87.298 E.00318
;WIDTH:0.496459
G1 X149.819 Y87.223 E.00344
G1 X149.819 Y84.429 E.10539
;WIDTH:0.535367
G1 X149.799 Y84.335 E.00393
;WIDTH:0.574275
G1 X149.78 Y84.241 E.00424
G1 X149.686 Y84.221 E.00424
;WIDTH:0.535368
G1 X149.651 Y84.214 E.00147
M204 S1000
; stop printing object snd-squeal-clip v18.stl id:0 copy 5
; printing object snd-squeal-clip v18.stl id:0 copy 4
;WIPE_START
G1 F8640
G1 X146.359 Y84.21 E-.76
;WIPE_END
G1 E-.04 F2100
G1 Z.6 F720
