; generated by PrusaSlicer 2.5.0+linux-x64-GTK3 on 2023-06-30 at 22:45:12 UTC


;
;
; 

; external perimeters extrusion width = 0.60mm
; perimeters extrusion width = 0.50mm
; infill extrusion width = 0.50mm
; solid infill extrusion width = 0.50mm
; top infill extrusion width = 0.45mm
; first layer extrusion width = 0.42mm

M73 P0 R74
M73 Q0 S74
M201 X1000 Y1000 Z200 E5000 ; sets maximum accelerations, mm/sec^2
M203 X200 Y200 Z12 E120 ; sets maximum feedrates, mm / sec
M204 P1250 R1250 T1250 ; sets acceleration (P, T) and retract acceleration (R), mm/sec^2
M205 X8.00 Y8.00 Z0.40 E4.50 ; sets the jerk limits, mm/sec
M205 S0 T0 ; sets the minimum extruding and travel feed rate, mm/sec
M107
;TYPE:Custom
M862.3 P "MK3S" ; printer model check
M862.1 P0.4 ; nozzle diameter check
M115 U3.11.0 ; tell printer latest fw version
G90 ; use absolute coordinates
M83 ; extruder relative mode
M104 S215 ; set extruder temp
M140 S60 ; set bed temp
M190 S60 ; wait for bed temp
M109 S215 ; wait for extruder temp
G28 W ; home all without mesh bed level
G80 ; mesh bed leveling

G1 Z0.2 F720
G1 Y-3 F1000 ; go outside print area
G92 E0
G1 X60 E9 F1000 ; intro line
G1 X100 E12.5 F1000 ; intro line

G92 E0
M221 S95

; Don't change E values below. Excessive value can damage the printer.

M907 E538 ; set extruder motor current
G21 ; set units to millimeters
G90 ; use absolute coordinates
M83 ; use relative distances for extrusion
M900 K0.05 ; Filament gcode LA 1.5
M900 K30 ; Filament gcode LA 1.0
M107
;LAYER_CHANGE
;Z:0.2
;HEIGHT:0.2
;BEFORE_LAYER_CHANGE
G92 E0.0
;0.2


M73 P0 R73
G1 E-.8 F2100
G1 Z.4 F720
;AFTER_LAYER_CHANGE
;0.2
G1 X64.595 Y24.953 F10800
G1 Z.2 F720
G1 E.8 F2100
M204 S800
;TYPE:Skirt/Brim
;WIDTH:0.42
G1 F1200
G1 X65.64 Y24.077 E.04278
G1 X66.58 Y23.883 E.03008
G1 X183.42 Y23.883 E3.66344
G1 X184.727 Y24.275 E.04278
G1 X185.603 Y25.32 E.04278
G1 X185.797 Y26.26 E.03008
G1 X185.797 Y183.74 E4.93767
G1 X185.405 Y185.047 E.04278
G1 X184.36 Y185.923 E.04278
G1 X183.42 Y186.117 E.03008
G1 X66.58 Y186.117 E3.66344
G1 X65.273 Y185.725 E.04278
G1 X64.397 Y184.68 E.04278
G1 X64.203 Y183.74 E.03008
G1 X64.203 Y26.26 E4.93767
G1 X64.577 Y25.01 E.0409
M204 S1000
; printing object snd-squeal-insert v18.stl id:0 copy 0
;WIPE_START
G1 F8640
G1 X65.64 Y24.077 E-.32671
G1 X66.58 Y23.883 E-.22155
G1 X67.497 Y23.883 E-.21174
;WIPE_END
G1 E-.04 F2100
G1 Z.6 F720
G1 X67.367 Y27.047 F10800
G1 Z.2 F720
G1 E.8 F2100
M204 S800
;TYPE:Perimeter
;WIDTH:0.419999
G1 F1200
G1 X182.633 Y27.047 E3.61407
G1 X182.633 Y182.953 E4.88831
G1 X67.367 Y182.953 E3.61407
M73 P1 R73
M73 Q1 S74
G1 X67.367 Y27.107 E4.88643
M204 S1000
G1 X66.99 Y26.67 F10800
M204 S800
;TYPE:External perimeter
M73 P1 R72
M73 Q1 S73
G1 F1200
G1 X183.01 Y26.67 E3.63772
G1 X183.01 Y183.33 E4.91196
G1 X66.99 Y183.33 E3.63772
G1 X66.99 Y26.73 E4.91007
M204 S1000
G1 X67.371 Y26.792 F10800
;WIPE_START
M73 P2 R72
M73 Q2 S73
G1 F8640
G1 X70.281 Y26.728 E-.76
;WIPE_END
G1 E-.04 F2100
G1 Z.6 F720
G1 X134.59 Y55.773 F10800
G1 Z.2 F720
G1 E.8 F2100
M204 S800
;TYPE:Perimeter
G1 F1200
G1 X134.242 Y56.35 E.02112
G1 X133.726 Y56.886 E.02334
G1 X133.103 Y57.294 E.02334
G1 X132.405 Y57.553 E.02334
G1 X131.674 Y57.65 E.02314
G1 X86.894 Y57.654 E1.40404
G1 X86.222 Y57.582 E.02119
G1 X85.515 Y57.349 E.02333
G1 X84.877 Y56.965 E.02334
G1 X84.371 Y56.483 E.02192
G1 X83.936 Y55.831 E.02456
G1 X83.674 Y55.128 E.02353
G1 X83.577 Y54.397 E.02314
G1 X83.573 Y35.144 E.60367
G1 X83.645 Y34.472 E.02119
G1 X83.878 Y33.765 E.02333
G1 X84.262 Y33.127 E.02334
G1 X84.778 Y32.591 E.02334
G1 X85.401 Y32.183 E.02334
G1 X86.099 Y31.924 E.02334
G1 X86.894 Y31.823 E.02513
G1 X131.61 Y31.823 E1.40205
G1 X132.282 Y31.895 E.02119
G1 X132.989 Y32.128 E.02333
G1 X133.627 Y32.512 E.02334
G1 X134.163 Y33.028 E.02334
G1 X134.571 Y33.651 E.02334
G1 X134.83 Y34.349 E.02334
G1 X134.927 Y35.08 E.02314
G1 X134.931 Y54.333 E.60367
G1 X134.859 Y55.005 E.02119
G1 X134.621 Y55.722 E.02367
M204 S1000
G1 X134.27 Y55.588 F10800
M204 S800
;TYPE:External perimeter
G1 F1200
G1 X133.923 Y56.149 E.02071
G1 X133.459 Y56.62 E.02071
G1 X132.903 Y56.975 E.02071
G1 X132.281 Y57.198 E.02071
G1 X131.631 Y57.276 E.02051
G1 X86.891 Y57.277 E1.40281
G1 X86.264 Y57.207 E.01977
G1 X85.639 Y56.993 E.0207
G1 X85.078 Y56.646 E.02071
G1 X84.637 Y56.215 E.01934
G1 X84.253 Y55.627 E.022
G1 X84.029 Y55.004 E.02077
G1 X83.951 Y54.354 E.02051
G1 X83.95 Y35.144 E.60233
G1 X84.02 Y34.514 E.01986
G1 X84.234 Y33.889 E.0207
G1 X84.581 Y33.328 E.02071
G1 X85.045 Y32.857 E.02071
G1 X85.601 Y32.502 E.02071
G1 X86.223 Y32.279 E.02071
G1 X86.894 Y32.2 E.02117
G1 X131.61 Y32.2 E1.40205
G1 X132.24 Y32.27 E.01986
G1 X132.865 Y32.484 E.0207
G1 X133.426 Y32.831 E.02071
G1 X133.897 Y33.295 E.02071
G1 X134.252 Y33.851 E.02071
G1 X134.475 Y34.473 E.02071
G1 X134.553 Y35.123 E.02051
G1 X134.554 Y54.333 E.60233
G1 X134.484 Y54.963 E.01986
G1 X134.29 Y55.531 E.01882
M204 S1000
G1 X134.497 Y55.917 F10800
;WIPE_START
G1 F8640
G1 X133.923 Y56.149 E-.16603
G1 X133.459 Y56.62 E-.15249
G1 X132.903 Y56.975 E-.1525
G1 X132.281 Y57.198 E-.15249
G1 X131.694 Y57.268 E-.13649
;WIPE_END
G1 E-.04 F2100
G1 Z.6 F720
G1 X120.466 Y81.631 F10800
G1 Z.2 F720
G1 E.8 F2100
M204 S800
;TYPE:Perimeter
G1 F1200
G1 X120.16 Y82.198 E.0202
G1 X119.816 Y82.76 E.02066
G1 X119.444 Y83.303 E.02066
G1 X119.043 Y83.827 E.02066
G1 X118.616 Y84.328 E.02066
G1 X118.163 Y84.807 E.02066
G1 X117.685 Y85.261 E.02066
G1 X117.185 Y85.69 E.02067
G1 X116.395 Y86.276 E.03082
G1 X115.567 Y86.805 E.03082
G1 X114.98 Y87.125 E.02098
G1 X114.385 Y87.41 E.02066
G1 X113.777 Y87.663 E.02066
G1 X113.156 Y87.883 E.02066
G1 X112.524 Y88.071 E.02066
G1 X111.883 Y88.226 E.02066
G1 X111.236 Y88.347 E.02066
G1 X110.582 Y88.433 E.02066
G1 X109.926 Y88.486 E.02066
G1 X109.267 Y88.504 E.02066
G1 X108.608 Y88.487 E.02066
G1 X107.951 Y88.437 E.02066
G1 X107.298 Y88.351 E.02066
G1 X106.65 Y88.232 E.02066
G1 X106.009 Y88.079 E.02066
G1 X105.376 Y87.892 E.02066
G1 X104.755 Y87.673 E.02066
G1 X104.158 Y87.427 E.02024
G1 X103.551 Y87.139 E.02107
G1 X102.971 Y86.825 E.02068
G1 X102.409 Y86.481 E.02066
G1 X101.866 Y86.109 E.02066
G1 X101.342 Y85.708 E.02066
G1 X100.841 Y85.281 E.02066
G1 X100.362 Y84.828 E.02066
G1 X99.908 Y84.35 E.02066
G1 X99.479 Y83.85 E.02066
G1 X99.078 Y83.327 E.02066
G1 X98.704 Y82.785 E.02066
G1 X98.359 Y82.223 E.02066
G1 X98.044 Y81.645 E.02066
G1 X97.759 Y81.05 E.02066
G1 X97.506 Y80.442 E.02066
G1 X97.286 Y79.821 E.02066
G1 X97.098 Y79.189 E.02066
G1 X96.943 Y78.548 E.02066
G1 X96.825 Y77.914 E.02024
G1 X96.736 Y77.248 E.02107
G1 X96.683 Y76.591 E.02068
G1 X96.665 Y75.932 E.02066
G1 X96.682 Y75.273 E.02066
G1 X96.732 Y74.616 E.02066
G1 X96.818 Y73.963 E.02066
G1 X96.937 Y73.315 E.02066
G1 X97.09 Y72.674 E.02066
G1 X97.277 Y72.041 E.02066
G1 X97.496 Y71.42 E.02066
G1 X97.742 Y70.823 E.02024
G1 X98.03 Y70.216 E.02107
G1 X98.344 Y69.636 E.02068
G1 X98.688 Y69.074 E.02066
G1 X99.06 Y68.531 E.02066
G1 X99.461 Y68.007 E.02066
G1 X99.888 Y67.506 E.02066
G1 X100.341 Y67.027 E.02066
G1 X100.819 Y66.573 E.02066
G1 X101.319 Y66.144 E.02066
G1 X101.842 Y65.743 E.02066
G1 X102.373 Y65.376 E.02024
G1 X102.945 Y65.024 E.02107
G1 X103.524 Y64.709 E.02068
G1 X104.119 Y64.424 E.02066
G1 X104.727 Y64.171 E.02066
G1 X105.348 Y63.951 E.02066
G1 X105.98 Y63.763 E.02066
G1 X106.621 Y63.608 E.02066
G1 X107.268 Y63.487 E.02066
G1 X107.922 Y63.401 E.02066
G1 X108.578 Y63.348 E.02066
G1 X109.224 Y63.33 E.02024
G1 X109.895 Y63.346 E.02107
G1 X110.553 Y63.397 E.02068
G1 X111.206 Y63.483 E.02066
G1 X111.855 Y63.602 E.02066
G1 X112.495 Y63.755 E.02066
G1 X113.128 Y63.942 E.02066
G1 X113.749 Y64.161 E.02066
G1 X114.358 Y64.412 E.02066
G1 X114.953 Y64.695 E.02066
G1 X115.533 Y65.009 E.02066
G1 X116.095 Y65.353 E.02066
G1 X116.638 Y65.725 E.02066
G1 X117.162 Y66.126 E.02066
G1 X117.663 Y66.553 E.02066
G1 X118.142 Y67.006 E.02066
G1 X118.596 Y67.484 E.02066
G1 X119.025 Y67.984 E.02066
G1 X119.426 Y68.507 E.02066
G1 X119.793 Y69.038 E.02024
G1 X120.145 Y69.61 E.02107
G1 X120.46 Y70.189 E.02068
G1 X120.745 Y70.784 E.02066
G1 X120.998 Y71.392 E.02066
G1 X121.218 Y72.013 E.02066
G1 X121.406 Y72.645 E.02066
G1 X121.561 Y73.286 E.02066
G1 X121.682 Y73.933 E.02066
G1 X121.768 Y74.587 E.02066
G1 X121.821 Y75.243 E.02066
G1 X121.839 Y75.902 E.02066
G1 X121.822 Y76.561 E.02066
G1 X121.772 Y77.218 E.02066
G1 X121.686 Y77.871 E.02066
G1 X121.567 Y78.519 E.02066
G1 X121.414 Y79.16 E.02066
G1 X121.227 Y79.793 E.02067
G1 X120.884 Y80.714 E.03082
G1 X120.493 Y81.577 E.02972
M204 S1000
G1 X120.165 Y81.387 F10800
M204 S800
;TYPE:External perimeter
G1 F1200
G1 X119.829 Y82.018 E.02239
G1 X119.495 Y82.563 E.02004
G1 X119.133 Y83.09 E.02004
G1 X118.744 Y83.597 E.02004
G1 X118.329 Y84.083 E.02004
G1 X117.889 Y84.547 E.02004
G1 X117.426 Y84.987 E.02004
G1 X116.94 Y85.403 E.02005
G1 X116.171 Y85.972 E.03
G1 X115.364 Y86.487 E.03
G1 X114.8 Y86.794 E.02015
G1 X114.223 Y87.069 E.02004
G1 X113.632 Y87.314 E.02004
G1 X113.03 Y87.528 E.02004
G1 X112.417 Y87.71 E.02004
G1 X111.795 Y87.859 E.02004
G1 X111.167 Y87.976 E.02004
G1 X110.533 Y88.06 E.02004
G1 X109.896 Y88.11 E.02004
G1 X109.257 Y88.127 E.02004
G1 X108.618 Y88.111 E.02004
G1 X107.981 Y88.061 E.02004
G1 X107.347 Y87.977 E.02004
G1 X106.718 Y87.861 E.02004
G1 X106.097 Y87.712 E.02004
G1 X105.484 Y87.531 E.02004
G1 X104.881 Y87.318 E.02004
G1 X104.303 Y87.079 E.01962
G1 X103.713 Y86.799 E.02046
G1 X103.151 Y86.494 E.02005
G1 X102.606 Y86.16 E.02004
G1 X102.079 Y85.798 E.02004
G1 X101.572 Y85.409 E.02004
G1 X101.086 Y84.994 E.02004
G1 X100.622 Y84.554 E.02004
G1 X100.182 Y84.091 E.02004
G1 X99.766 Y83.605 E.02004
G1 X99.377 Y83.098 E.02004
G1 X99.014 Y82.571 E.02004
G1 X98.68 Y82.026 E.02004
G1 X98.375 Y81.465 E.02004
G1 X98.1 Y80.888 E.02004
G1 X97.855 Y80.297 E.02004
G1 X97.641 Y79.695 E.02004
G1 X97.459 Y79.082 E.02004
G1 X97.31 Y78.46 E.02004
G1 X97.196 Y77.845 E.01962
G1 X97.109 Y77.198 E.02046
G1 X97.059 Y76.561 E.02005
G1 X97.042 Y75.922 E.02004
G1 X97.058 Y75.283 E.02004
G1 X97.108 Y74.646 E.02004
G1 X97.192 Y74.012 E.02004
G1 X97.308 Y73.383 E.02004
G1 X97.457 Y72.762 E.02004
G1 X97.638 Y72.149 E.02004
G1 X97.851 Y71.546 E.02004
G1 X98.09 Y70.968 E.01962
G1 X98.37 Y70.378 E.02046
G1 X98.675 Y69.816 E.02005
G1 X99.009 Y69.271 E.02004
G1 X99.371 Y68.744 E.02004
G1 X99.76 Y68.237 E.02004
G1 X100.175 Y67.751 E.02004
G1 X100.615 Y67.287 E.02004
G1 X101.078 Y66.847 E.02004
G1 X101.564 Y66.431 E.02004
G1 X102.071 Y66.042 E.02004
G1 X102.587 Y65.687 E.01962
G1 X103.143 Y65.345 E.02046
G1 X103.704 Y65.04 E.02005
G1 X104.281 Y64.765 E.02004
G1 X104.872 Y64.52 E.02004
G1 X105.474 Y64.306 E.02004
G1 X106.087 Y64.124 E.02004
G1 X106.709 Y63.975 E.02004
G1 X107.337 Y63.858 E.02004
G1 X107.971 Y63.774 E.02004
G1 X108.608 Y63.724 E.02004
G1 X109.233 Y63.707 E.01962
G1 X109.886 Y63.723 E.02046
G1 X110.523 Y63.773 E.02005
G1 X111.157 Y63.857 E.02004
G1 X111.786 Y63.973 E.02004
G1 X112.407 Y64.122 E.02004
G1 X113.02 Y64.303 E.02004
G1 X113.623 Y64.516 E.02004
G1 X114.214 Y64.761 E.02004
G1 X114.791 Y65.036 E.02004
G1 X115.353 Y65.34 E.02004
G1 X115.898 Y65.674 E.02004
G1 X116.425 Y66.036 E.02004
G1 X116.932 Y66.425 E.02004
G1 X117.418 Y66.84 E.02004
G1 X117.882 Y67.28 E.02004
G1 X118.322 Y67.743 E.02004
G1 X118.738 Y68.229 E.02004
G1 X119.127 Y68.736 E.02004
G1 X119.482 Y69.252 E.01962
G1 X119.824 Y69.808 E.02046
G1 X120.129 Y70.369 E.02005
G1 X120.404 Y70.946 E.02004
G1 X120.649 Y71.537 E.02004
G1 X120.863 Y72.139 E.02004
G1 X121.045 Y72.752 E.02004
G1 X121.194 Y73.374 E.02004
G1 X121.311 Y74.002 E.02004
G1 X121.395 Y74.636 E.02004
G1 X121.445 Y75.273 E.02004
G1 X121.462 Y75.912 E.02004
G1 X121.446 Y76.551 E.02004
G1 X121.396 Y77.188 E.02004
G1 X121.312 Y77.822 E.02004
G1 X121.196 Y78.451 E.02004
G1 X121.047 Y79.072 E.02004
G1 X120.866 Y79.686 E.02005
G1 X120.531 Y80.582 E.03
G1 X120.189 Y81.333 E.02587
M204 S1000
G1 X120.387 Y81.72 F10800
;WIPE_START
G1 F8640
G1 X119.829 Y82.018 E-.17874
G1 X119.495 Y82.563 E-.1476
G1 X119.133 Y83.09 E-.14761
G1 X118.744 Y83.597 E-.14759
G1 X118.355 Y84.053 E-.13846
;WIPE_END
G1 E-.04 F2100
G1 Z.6 F720
G1 X133.05 Y94.521 F10800
G1 Z.2 F720
G1 E.8 F2100
M204 S800
;TYPE:Perimeter
G1 F1200
G1 X133.627 Y94.869 E.02112
G1 X134.163 Y95.385 E.02334
G1 X134.571 Y96.008 E.02334
G1 X134.83 Y96.706 E.02334
G1 X134.927 Y97.437 E.02314
G1 X134.931 Y98.306 E.02725
G1 X134.931 Y116.933 E.58403
G1 X134.859 Y117.605 E.02119
M73 Q2 S72
G1 X134.626 Y118.312 E.02333
G1 X134.242 Y118.95 E.02334
G1 X133.726 Y119.486 E.02334
G1 X133.103 Y119.894 E.02334
G1 X132.405 Y120.153 E.02334
G1 X131.61 Y120.254 E.02513
G1 X86.894 Y120.254 E1.40205
G1 X86.222 Y120.182 E.02119
G1 X85.515 Y119.949 E.02333
G1 X84.877 Y119.565 E.02334
G1 X84.371 Y119.083 E.02192
G1 X83.936 Y118.431 E.02456
G1 X83.674 Y117.728 E.02353
G1 X83.573 Y116.933 E.02513
G1 X83.573 Y97.501 E.60929
G1 X83.645 Y96.829 E.02119
G1 X83.878 Y96.122 E.02333
G1 X84.262 Y95.484 E.02334
G1 X84.778 Y94.948 E.02334
G1 X85.401 Y94.54 E.02334
G1 X86.099 Y94.281 E.02334
G1 X86.83 Y94.184 E.02314
G1 X87.767 Y94.18 E.02937
G1 X131.61 Y94.18 E1.37467
G1 X132.282 Y94.252 E.02119
M73 P2 R71
G1 X132.999 Y94.49 E.02367
M204 S1000
G1 X132.865 Y94.841 F10800
M204 S800
;TYPE:External perimeter
G1 F1200
G1 X133.426 Y95.188 E.02071
G1 X133.897 Y95.652 E.02071
G1 X134.252 Y96.208 E.02071
G1 X134.475 Y96.83 E.02071
G1 X134.553 Y97.48 E.02051
G1 X134.554 Y116.933 E.60995
G1 X134.484 Y117.563 E.01986
G1 X134.27 Y118.188 E.0207
G1 X133.923 Y118.749 E.02071
G1 X133.459 Y119.22 E.02071
G1 X132.903 Y119.575 E.02071
G1 X132.281 Y119.798 E.02071
G1 X131.61 Y119.877 E.02117
G1 X86.894 Y119.877 E1.40205
G1 X86.264 Y119.807 E.01986
G1 X85.639 Y119.593 E.0207
G1 X85.078 Y119.246 E.02071
G1 X84.637 Y118.815 E.01934
G1 X84.253 Y118.227 E.022
G1 X84.029 Y117.604 E.02077
G1 X83.95 Y116.933 E.02117
G1 X83.95 Y97.501 E.60929
G1 X84.02 Y96.871 E.01986
G1 X84.234 Y96.246 E.0207
G1 X84.581 Y95.685 E.02071
G1 X85.045 Y95.214 E.02071
G1 X85.601 Y94.859 E.02071
G1 X86.223 Y94.636 E.02071
G1 X86.873 Y94.558 E.02051
G1 X87.767 Y94.557 E.02804
G1 X131.613 Y94.557 E1.37476
G1 X132.24 Y94.627 E.01977
G1 X132.808 Y94.821 E.01882
M204 S1000
G1 X133.194 Y94.614 F10800
;WIPE_START
G1 F8640
G1 X133.426 Y95.188 E-.16603
G1 X133.897 Y95.652 E-.15249
G1 X134.252 Y96.208 E-.15249
G1 X134.475 Y96.83 E-.15249
G1 X134.545 Y97.417 E-.13649
;WIPE_END
G1 E-.04 F2100
G1 Z.6 F720
G1 X94.362 Y129.199 F10800
G1 Z.2 F720
G1 E.8 F2100
M204 S800
;TYPE:Perimeter
G1 F1200
G1 X94.926 Y128.83 E.02112
G1 X95.624 Y128.571 E.02334
G1 X96.419 Y128.47 E.02513
G1 X112.941 Y128.47 E.51805
G1 X113.613 Y128.542 E.02119
G1 X114.32 Y128.775 E.02333
G1 X114.958 Y129.159 E.02334
G1 X115.494 Y129.675 E.02334
G1 X115.902 Y130.298 E.02334
G1 X116.161 Y130.996 E.02334
G1 X116.262 Y131.791 E.02513
G1 X116.262 Y152.123 E.63751
G1 X116.19 Y152.795 E.02119
G1 X115.957 Y153.502 E.02333
G1 X115.573 Y154.14 E.02334
G1 X115.057 Y154.676 E.02334
G1 X114.434 Y155.084 E.02334
G1 X113.736 Y155.343 E.02334
G1 X112.941 Y155.444 E.02513
G1 X96.419 Y155.444 E.51805
G1 X95.747 Y155.372 E.02119
M73 P3 R71
G1 X95.04 Y155.139 E.02333
G1 X94.402 Y154.755 E.02334
G1 X93.866 Y154.239 E.02334
G1 X93.458 Y153.616 E.02334
G1 X93.199 Y152.918 E.02334
G1 X93.098 Y152.123 E.02513
G1 X93.098 Y131.791 E.63751
G1 X93.17 Y131.119 E.02119
M73 Q3 S72
G1 X93.334 Y130.608 E.01681
G1 X93.458 Y130.298 E.01048
G1 X93.787 Y129.774 E.01939
G1 X94.312 Y129.232 E.02368
M204 S1000
G1 X94.57 Y129.504 F10800
M204 S800
;TYPE:External perimeter
G1 F1200
G1 X95.126 Y129.149 E.02071
G1 X95.748 Y128.926 E.02071
G1 X96.419 Y128.847 E.02117
G1 X112.941 Y128.847 E.51805
G1 X113.571 Y128.917 E.01986
G1 X114.196 Y129.131 E.0207
G1 X114.757 Y129.478 E.02071
G1 X115.228 Y129.942 E.02071
G1 X115.583 Y130.498 E.02071
G1 X115.806 Y131.12 E.02071
G1 X115.885 Y131.791 E.02117
G1 X115.885 Y152.123 E.63751
G1 X115.815 Y152.753 E.01986
G1 X115.601 Y153.378 E.0207
G1 X115.254 Y153.939 E.02071
G1 X114.79 Y154.41 E.02071
G1 X114.234 Y154.765 E.02071
G1 X113.612 Y154.988 E.02071
G1 X112.941 Y155.067 E.02117
G1 X96.419 Y155.067 E.51805
