; generated by PrusaSlicer 2.5.0+linux-x64-GTK3 on 2023-06-30 at 22:45:25 UTC


;
;
; 

; external perimeters extrusion width = 0.60mm
; perimeters extrusion width = 0.50mm
; infill extrusion width = 0.50mm
; solid infill extrusion width = 0.50mm
; top infill extrusion width = 0.45mm
; first layer extrusion width = 0.42mm

M73 P0 R146
M73 Q0 S149
M201 X1000 Y1000 Z200 E5000 ; sets maximum accelerations, mm/sec^2
M203 X200 Y200 Z12 E120 ; sets maximum feedrates, mm / sec
M204 P1250 R1250 T1250 ; sets acceleration (P, T) and retract acceleration (R), mm/sec^2
M205 X8.00 Y8.00 Z0.40 E4.50 ; sets the jerk limits, mm/sec
M205 S0 T0 ; sets the minimum extruding and travel feed rate, mm/sec
M107
;TYPE:Custom
M862.3 P "MK3S" ; printer model check
M862.1 P0.4 ; nozzle diameter check
M115 U3.11.0 ; tell printer latest fw version
G90 ; use absolute coordinates
M83 ; extruder relative mode
M104 S215 ; set extruder temp
M140 S60 ; set bed temp
M190 S60 ; wait for bed temp
M109 S215 ; wait for extruder temp
G28 W ; home all without mesh bed level
G80 ; mesh bed leveling

G1 Z0.2 F720
G1 Y-3 F1000 ; go outside print area
G92 E0
G1 X60 E9 F1000 ; intro line
G1 X100 E12.5 F1000 ; intro line

G92 E0
M221 S95

; Don't change E values below. Excessive value can damage the printer.

M907 E538 ; set extruder motor current
G21 ; set units to millimeters
G90 ; use absolute coordinates
M83 ; use relative distances for extrusion
M900 K0.05 ; Filament gcode LA 1.5
M900 K30 ; Filament gcode LA 1.0
M107
;LAYER_CHANGE
;Z:0.2
;HEIGHT:0.2
;BEFORE_LAYER_CHANGE
G92 E0.0
;0.2


G1 E-.8 F2100
G1 Z.4 F720
;AFTER_LAYER_CHANGE
;0.2
G1 X5.72 Y24.077 F10800
G1 Z.2 F720
G1 E.8 F2100
M204 S800
;TYPE:Skirt/Brim
;WIDTH:0.42
G1 F1200
G1 X6.66 Y23.883 E.03008
G1 X243.34 Y23.883 E7.42094
G1 X244.647 Y24.275 E.04278
G1 X245.523 Y25.32 E.04278
G1 X245.717 Y26.26 E.03008
G1 X245.717 Y183.74 E4.93767
G1 X245.325 Y185.047 E.04278
M73 Q0 S148
G1 X244.28 Y185.923 E.04278
G1 X243.34 Y186.117 E.03008
G1 X6.66 Y186.117 E7.42094
G1 X5.353 Y185.725 E.04278
G1 X4.477 Y184.68 E.04278
G1 X4.283 Y183.74 E.03008
G1 X4.283 Y26.26 E4.93767
G1 X4.675 Y24.953 E.04278
G1 X5.674 Y24.115 E.0409
M204 S1000
; printing object snd-squeal-insert v18.stl id:0 copy 1
;WIPE_START
G1 F8640
G1 X6.66 Y23.883 E-.23384
G1 X8.939 Y23.883 E-.52616
;WIPE_END
G1 E-.04 F2100
G1 Z.6 F720
G1 X127.287 Y27.047 F10800
G1 Z.2 F720
G1 E.8 F2100
M204 S800
;TYPE:Perimeter
;WIDTH:0.419999
G1 F1200
G1 X242.553 Y27.047 E3.61407
G1 X242.553 Y182.953 E4.88831
M73 P0 R145
G1 X127.287 Y182.953 E3.61407
G1 X127.287 Y27.107 E4.88643
M204 S1000
G1 X126.91 Y26.67 F10800
M204 S800
;TYPE:External perimeter
G1 F1200
G1 X242.93 Y26.67 E3.63772
G1 X242.93 Y183.33 E4.91196
G1 X126.91 Y183.33 E3.63772
M73 P1 R145
M73 Q1 S147
G1 X126.91 Y26.73 E4.91007
M204 S1000
G1 X127.291 Y26.792 F10800
;WIPE_START
G1 F8640
G1 X130.201 Y26.728 E-.76
;WIPE_END
G1 E-.04 F2100
G1 Z.6 F720
G1 X194.51 Y55.773 F10800
G1 Z.2 F720
G1 E.8 F2100
M204 S800
;TYPE:Perimeter
G1 F1200
G1 X194.162 Y56.35 E.02112
G1 X193.646 Y56.886 E.02334
G1 X193.023 Y57.294 E.02334
G1 X192.325 Y57.553 E.02334
G1 X191.594 Y57.65 E.02314
G1 X146.814 Y57.654 E1.40404
G1 X146.142 Y57.582 E.02119
G1 X145.435 Y57.349 E.02333
G1 X144.797 Y56.965 E.02334
G1 X144.291 Y56.483 E.02192
G1 X143.856 Y55.831 E.02456
G1 X143.594 Y55.128 E.02353
G1 X143.497 Y54.397 E.02314
G1 X143.493 Y35.144 E.60367
G1 X143.565 Y34.472 E.02119
G1 X143.798 Y33.765 E.02333
G1 X144.182 Y33.127 E.02334
G1 X144.698 Y32.591 E.02334
G1 X145.321 Y32.183 E.02334
G1 X146.019 Y31.924 E.02334
G1 X146.814 Y31.823 E.02513
G1 X191.53 Y31.823 E1.40205
G1 X192.202 Y31.895 E.02119
G1 X192.909 Y32.128 E.02333
G1 X193.547 Y32.512 E.02334
G1 X194.083 Y33.028 E.02334
G1 X194.491 Y33.651 E.02334
G1 X194.75 Y34.349 E.02334
G1 X194.847 Y35.08 E.02314
G1 X194.851 Y54.333 E.60367
G1 X194.779 Y55.005 E.02119
G1 X194.541 Y55.722 E.02367
M204 S1000
G1 X194.19 Y55.588 F10800
M204 S800
;TYPE:External perimeter
G1 F1200
G1 X193.843 Y56.149 E.02071
G1 X193.379 Y56.62 E.02071
G1 X192.823 Y56.975 E.02071
G1 X192.201 Y57.198 E.02071
G1 X191.551 Y57.276 E.02051
G1 X146.811 Y57.277 E1.40281
G1 X146.184 Y57.207 E.01977
M73 P1 R144
G1 X145.559 Y56.993 E.0207
G1 X144.998 Y56.646 E.02071
G1 X144.557 Y56.215 E.01934
G1 X144.173 Y55.627 E.022
G1 X143.949 Y55.004 E.02077
G1 X143.871 Y54.354 E.02051
G1 X143.87 Y35.144 E.60233
G1 X143.94 Y34.514 E.01986
G1 X144.154 Y33.889 E.0207
G1 X144.501 Y33.328 E.02071
G1 X144.965 Y32.857 E.02071
G1 X145.521 Y32.502 E.02071
G1 X146.143 Y32.279 E.02071
G1 X146.814 Y32.2 E.02117
G1 X191.53 Y32.2 E1.40205
G1 X192.16 Y32.27 E.01986
G1 X192.785 Y32.484 E.0207
G1 X193.346 Y32.831 E.02071
G1 X193.817 Y33.295 E.02071
G1 X194.172 Y33.851 E.02071
G1 X194.395 Y34.473 E.02071
G1 X194.473 Y35.123 E.02051
G1 X194.474 Y54.333 E.60233
G1 X194.404 Y54.963 E.01986
G1 X194.21 Y55.531 E.01882
M204 S1000
G1 X194.417 Y55.917 F10800
;WIPE_START
G1 F8640
G1 X193.843 Y56.149 E-.16603
G1 X193.379 Y56.62 E-.15249
G1 X192.823 Y56.975 E-.1525
G1 X192.201 Y57.198 E-.15249
G1 X191.614 Y57.268 E-.13649
;WIPE_END
G1 E-.04 F2100
G1 Z.6 F720
G1 X180.386 Y81.631 F10800
G1 Z.2 F720
G1 E.8 F2100
M204 S800
;TYPE:Perimeter
G1 F1200
G1 X180.08 Y82.198 E.0202
G1 X179.736 Y82.76 E.02066
G1 X179.364 Y83.303 E.02066
G1 X178.963 Y83.827 E.02066
G1 X178.536 Y84.328 E.02066
G1 X178.083 Y84.807 E.02066
G1 X177.605 Y85.261 E.02066
G1 X177.105 Y85.69 E.02067
G1 X176.315 Y86.276 E.03082
G1 X175.487 Y86.805 E.03082
G1 X174.9 Y87.125 E.02098
G1 X174.305 Y87.41 E.02066
G1 X173.697 Y87.663 E.02066
G1 X173.076 Y87.883 E.02066
G1 X172.444 Y88.071 E.02066
G1 X171.803 Y88.226 E.02066
G1 X171.156 Y88.347 E.02066
G1 X170.502 Y88.433 E.02066
G1 X169.846 Y88.486 E.02066
G1 X169.187 Y88.504 E.02066
G1 X168.528 Y88.487 E.02066
G1 X167.871 Y88.437 E.02066
G1 X167.218 Y88.351 E.02066
G1 X166.57 Y88.232 E.02066
G1 X165.929 Y88.079 E.02066
G1 X165.296 Y87.892 E.02066
G1 X164.675 Y87.673 E.02066
G1 X164.078 Y87.427 E.02024
G1 X163.471 Y87.139 E.02107
G1 X162.891 Y86.825 E.02068
G1 X162.329 Y86.481 E.02066
G1 X161.786 Y86.109 E.02066
G1 X161.262 Y85.708 E.02066
G1 X160.761 Y85.281 E.02066
G1 X160.282 Y84.828 E.02066
G1 X159.828 Y84.35 E.02066
G1 X159.399 Y83.85 E.02066
G1 X158.998 Y83.327 E.02066
G1 X158.624 Y82.785 E.02066
G1 X158.279 Y82.223 E.02066
G1 X157.964 Y81.645 E.02066
G1 X157.679 Y81.05 E.02066
G1 X157.426 Y80.442 E.02066
G1 X157.206 Y79.821 E.02066
G1 X157.018 Y79.189 E.02066
G1 X156.863 Y78.548 E.02066
G1 X156.745 Y77.914 E.02024
G1 X156.656 Y77.248 E.02107
G1 X156.603 Y76.591 E.02068
G1 X156.585 Y75.932 E.02066
G1 X156.602 Y75.273 E.02066
G1 X156.652 Y74.616 E.02066
G1 X156.738 Y73.963 E.02066
G1 X156.857 Y73.315 E.02066
G1 X157.01 Y72.674 E.02066
G1 X157.197 Y72.041 E.02066
G1 X157.416 Y71.42 E.02066
G1 X157.662 Y70.823 E.02024
G1 X157.95 Y70.216 E.02107
G1 X158.264 Y69.636 E.02068
G1 X158.608 Y69.074 E.02066
G1 X158.98 Y68.531 E.02066
G1 X159.381 Y68.007 E.02066
G1 X159.808 Y67.506 E.02066
G1 X160.261 Y67.027 E.02066
G1 X160.739 Y66.573 E.02066
G1 X161.239 Y66.144 E.02066
G1 X161.762 Y65.743 E.02066
G1 X162.293 Y65.376 E.02024
G1 X162.865 Y65.024 E.02107
G1 X163.444 Y64.709 E.02068
G1 X164.039 Y64.424 E.02066
G1 X164.647 Y64.171 E.02066
G1 X165.268 Y63.951 E.02066
G1 X165.9 Y63.763 E.02066
G1 X166.541 Y63.608 E.02066
G1 X167.188 Y63.487 E.02066
G1 X167.842 Y63.401 E.02066
G1 X168.498 Y63.348 E.02066
G1 X169.144 Y63.33 E.02024
G1 X169.815 Y63.346 E.02107
G1 X170.473 Y63.397 E.02068
G1 X171.126 Y63.483 E.02066
G1 X171.775 Y63.602 E.02066
G1 X172.415 Y63.755 E.02066
G1 X173.048 Y63.942 E.02066
G1 X173.669 Y64.161 E.02066
G1 X174.278 Y64.412 E.02066
G1 X174.873 Y64.695 E.02066
G1 X175.453 Y65.009 E.02066
G1 X176.015 Y65.353 E.02066
G1 X176.558 Y65.725 E.02066
G1 X177.082 Y66.126 E.02066
G1 X177.583 Y66.553 E.02066
G1 X178.062 Y67.006 E.02066
G1 X178.516 Y67.484 E.02066
G1 X178.945 Y67.984 E.02066
G1 X179.346 Y68.507 E.02066
G1 X179.713 Y69.038 E.02024
G1 X180.065 Y69.61 E.02107
G1 X180.38 Y70.189 E.02068
G1 X180.665 Y70.784 E.02066
G1 X180.918 Y71.392 E.02066
G1 X181.138 Y72.013 E.02066
G1 X181.326 Y72.645 E.02066
G1 X181.481 Y73.286 E.02066
G1 X181.602 Y73.933 E.02066
G1 X181.688 Y74.587 E.02066
G1 X181.741 Y75.243 E.02066
G1 X181.759 Y75.902 E.02066
G1 X181.742 Y76.561 E.02066
G1 X181.692 Y77.218 E.02066
G1 X181.606 Y77.871 E.02066
G1 X181.487 Y78.519 E.02066
G1 X181.334 Y79.16 E.02066
G1 X181.147 Y79.793 E.02067
G1 X180.804 Y80.714 E.03082
G1 X180.413 Y81.577 E.02972
M204 S1000
G1 X180.085 Y81.387 F10800
M204 S800
;TYPE:External perimeter
G1 F1200
G1 X179.749 Y82.018 E.02239
G1 X179.415 Y82.563 E.02004
G1 X179.053 Y83.09 E.02004
G1 X178.664 Y83.597 E.02004
G1 X178.249 Y84.083 E.02004
G1 X177.809 Y84.547 E.02004
G1 X177.346 Y84.988 E.02004
G1 X176.86 Y85.403 E.02005
G1 X176.091 Y85.972 E.03
G1 X175.284 Y86.487 E.03
G1 X174.72 Y86.794 E.02015
G1 X174.143 Y87.069 E.02004
G1 X173.552 Y87.314 E.02004
G1 X172.95 Y87.528 E.02004
G1 X172.337 Y87.71 E.02004
G1 X171.715 Y87.859 E.02004
G1 X171.087 Y87.976 E.02004
G1 X170.453 Y88.06 E.02004
G1 X169.816 Y88.11 E.02004
G1 X169.177 Y88.127 E.02004
G1 X168.538 Y88.111 E.02004
G1 X167.901 Y88.061 E.02004
G1 X167.267 Y87.977 E.02004
G1 X166.638 Y87.861 E.02004
G1 X166.017 Y87.712 E.02004
G1 X165.404 Y87.531 E.02004
G1 X164.801 Y87.318 E.02004
G1 X164.223 Y87.079 E.01962
G1 X163.633 Y86.799 E.02046
G1 X163.071 Y86.494 E.02005
G1 X162.526 Y86.16 E.02004
G1 X161.999 Y85.798 E.02004
G1 X161.492 Y85.409 E.02004
G1 X161.006 Y84.994 E.02004
G1 X160.542 Y84.554 E.02004
G1 X160.102 Y84.091 E.02004
G1 X159.686 Y83.605 E.02004
G1 X159.297 Y83.098 E.02004
G1 X158.934 Y82.571 E.02004
G1 X158.6 Y82.026 E.02004
G1 X158.295 Y81.465 E.02004
G1 X158.02 Y80.888 E.02004
G1 X157.775 Y80.297 E.02004
G1 X157.561 Y79.695 E.02004
G1 X157.379 Y79.082 E.02004
G1 X157.23 Y78.46 E.02004
G1 X157.116 Y77.845 E.01962
G1 X157.029 Y77.198 E.02046
G1 X156.979 Y76.561 E.02005
G1 X156.962 Y75.922 E.02004
G1 X156.978 Y75.283 E.02004
G1 X157.028 Y74.646 E.02004
G1 X157.112 Y74.012 E.02004
G1 X157.228 Y73.383 E.02004
G1 X157.377 Y72.762 E.02004
G1 X157.558 Y72.149 E.02004
G1 X157.771 Y71.546 E.02004
G1 X158.01 Y70.968 E.01962
G1 X158.29 Y70.378 E.02046
G1 X158.595 Y69.816 E.02005
G1 X158.929 Y69.271 E.02004
G1 X159.291 Y68.744 E.02004
G1 X159.68 Y68.237 E.02004
G1 X160.095 Y67.751 E.02004
G1 X160.535 Y67.287 E.02004
G1 X160.998 Y66.847 E.02004
G1 X161.484 Y66.431 E.02004
G1 X161.991 Y66.042 E.02004
G1 X162.507 Y65.687 E.01962
G1 X163.063 Y65.345 E.02046
G1 X163.624 Y65.04 E.02005
G1 X164.201 Y64.765 E.02004
G1 X164.792 Y64.52 E.02004
G1 X165.394 Y64.306 E.02004
G1 X166.007 Y64.124 E.02004
G1 X166.629 Y63.975 E.02004
G1 X167.257 Y63.858 E.02004
G1 X167.891 Y63.774 E.02004
G1 X168.528 Y63.724 E.02004
G1 X169.153 Y63.707 E.01962
G1 X169.806 Y63.723 E.02046
G1 X170.443 Y63.773 E.02005
G1 X171.077 Y63.857 E.02004
G1 X171.706 Y63.973 E.02004
G1 X172.327 Y64.122 E.02004
G1 X172.94 Y64.303 E.02004
G1 X173.543 Y64.516 E.02004
G1 X174.134 Y64.761 E.02004
G1 X174.711 Y65.036 E.02004
G1 X175.273 Y65.34 E.02004
G1 X175.818 Y65.674 E.02004
G1 X176.345 Y66.036 E.02004
G1 X176.852 Y66.425 E.02004
G1 X177.338 Y66.84 E.02004
G1 X177.802 Y67.28 E.02004
G1 X178.242 Y67.743 E.02004
G1 X178.658 Y68.229 E.02004
G1 X179.047 Y68.736 E.02004
G1 X179.402 Y69.252 E.01962
G1 X179.744 Y69.808 E.02046
G1 X180.049 Y70.369 E.02005
G1 X180.324 Y70.946 E.02004
G1 X180.569 Y71.537 E.02004
G1 X180.783 Y72.139 E.02004
G1 X180.965 Y72.752 E.02004
G1 X181.114 Y73.374 E.02004
G1 X181.231 Y74.002 E.02004
G1 X181.315 Y74.636 E.02004
G1 X181.365 Y75.273 E.02004
G1 X181.382 Y75.912 E.02004
G1 X181.366 Y76.551 E.02004
G1 X181.316 Y77.188 E.02004
G1 X181.232 Y77.822 E.02004
G1 X181.116 Y78.451 E.02004
G1 X180.967 Y79.072 E.02004
G1 X180.786 Y79.686 E.02005
G1 X180.451 Y80.582 E.03
G1 X180.109 Y81.333 E.02587
M204 S1000
G1 X180.307 Y81.72 F10800
;WIPE_START
G1 F8640
G1 X179.749 Y82.018 E-.17874
G1 X179.415 Y82.563 E-.1476
G1 X179.053 Y83.09 E-.14761
G1 X178.664 Y83.597 E-.14759
G1 X178.275 Y84.053 E-.13846
;WIPE_END
G1 E-.04 F2100
G1 Z.6 F720
G1 X192.97 Y94.521 F10800
G1 Z.2 F720
G1 E.8 F2100
M204 S800
;TYPE:Perimeter
G1 F1200
G1 X193.547 Y94.869 E.02112
G1 X194.083 Y95.385 E.02334
G1 X194.491 Y96.008 E.02334
G1 X194.75 Y96.706 E.02334
G1 X194.847 Y97.437 E.02314
G1 X194.851 Y98.306 E.02725
G1 X194.851 Y116.933 E.58403
G1 X194.779 Y117.605 E.02119
G1 X194.546 Y118.312 E.02333
G1 X194.162 Y118.95 E.02334
G1 X193.646 Y119.486 E.02334
G1 X193.023 Y119.894 E.02334
G1 X192.325 Y120.153 E.02334
G1 X191.53 Y120.254 E.02513
G1 X146.814 Y120.254 E1.40205
G1 X146.142 Y120.182 E.02119
G1 X145.435 Y119.949 E.02333
G1 X144.797 Y119.565 E.02334
G1 X144.291 Y119.083 E.02192
G1 X143.856 Y118.431 E.02456
G1 X143.594 Y117.728 E.02353
G1 X143.493 Y116.933 E.02513
G1 X143.493 Y97.501 E.60929
G1 X143.565 Y96.829 E.02119
G1 X143.798 Y96.122 E.02333
G1 X144.182 Y95.484 E.02334
G1 X144.698 Y94.948 E.02334
G1 X145.321 Y94.54 E.02334
G1 X146.019 Y94.281 E.02334
G1 X146.75 Y94.184 E.02314
G1 X147.687 Y94.18 E.02937
G1 X191.53 Y94.18 E1.37467
G1 X192.202 Y94.252 E.02119
G1 X192.919 Y94.49 E.02367
M204 S1000
G1 X192.785 Y94.841 F10800
M204 S800
;TYPE:External perimeter
G1 F1200
G1 X193.346 Y95.188 E.02071
G1 X193.817 Y95.652 E.02071
G1 X194.172 Y96.208 E.02071
G1 X194.395 Y96.83 E.02071
G1 X194.473 Y97.48 E.02051
G1 X194.474 Y116.933 E.60995
G1 X194.404 Y117.563 E.01986
G1 X194.19 Y118.188 E.0207
G1 X193.843 Y118.749 E.02071
G1 X193.379 Y119.22 E.02071
G1 X192.823 Y119.575 E.02071
G1 X192.201 Y119.798 E.02071
G1 X191.53 Y119.877 E.02117
G1 X146.814 Y119.877 E1.40205
G1 X146.184 Y119.807 E.01986
G1 X145.559 Y119.593 E.0207
G1 X144.998 Y119.246 E.02071
G1 X144.557 Y118.815 E.01934
G1 X144.173 Y118.227 E.022
G1 X143.949 Y117.604 E.02077
G1 X143.87 Y116.933 E.02117
G1 X143.87 Y97.501 E.60929
G1 X143.94 Y96.871 E.01986
G1 X144.154 Y96.246 E.0207
G1 X144.501 Y95.685 E.02071
G1 X144.965 Y95.214 E.02071
G1 X145.521 Y94.859 E.02071
G1 X146.143 Y94.636 E.02071
G1 X146.793 Y94.558 E.02051
G1 X147.687 Y94.557 E.02804
G1 X191.533 Y94.557 E1.37476
G1 X192.16 Y94.627 E.01977
M73 Q1 S146
G1 X192.728 Y94.821 E.01882
M204 S1000
G1 X193.114 Y94.614 F10800
;WIPE_START
G1 F8640
G1 X193.346 Y95.188 E-.16603
G1 X193.817 Y95.652 E-.15249
G1 X194.172 Y96.208 E-.15249
G1 X194.395 Y96.83 E-.15249
G1 X194.465 Y97.417 E-.13649
;WIPE_END
G1 E-.04 F2100
G1 Z.6 F720
G1 X154.282 Y129.199 F10800
G1 Z.2 F720
G1 E.8 F2100
M204 S800
;TYPE:Perimeter
G1 F1200
G1 X154.846 Y128.83 E.02112
G1 X155.544 Y128.571 E.02334
G1 X156.339 Y128.47 E.02513
G1 X172.861 Y128.47 E.51805
G1 X173.533 Y128.542 E.02119
G1 X174.24 Y128.775 E.02333
G1 X174.878 Y129.159 E.02334
G1 X175.414 Y129.675 E.02334
G1 X175.822 Y130.298 E.02334
G1 X176.081 Y130.996 E.02334
G1 X176.182 Y131.791 E.02513
G1 X176.182 Y152.123 E.63751
G1 X176.11 Y152.795 E.02119
G1 X175.877 Y153.502 E.02333
G1 X175.493 Y154.14 E.02334
G1 X174.977 Y154.676 E.02334
G1 X174.354 Y155.084 E.02334
G1 X173.656 Y155.343 E.02334
G1 X172.861 Y155.444 E.02513
G1 X156.339 Y155.444 E.51805
G1 X155.667 Y155.372 E.02119
G1 X154.96 Y155.139 E.02333
G1 X154.322 Y154.755 E.02334
G1 X153.786 Y154.239 E.02334
G1 X153.378 Y153.616 E.02334
G1 X153.119 Y152.918 E.02334
G1 X153.018 Y152.123 E.02513
G1 X153.018 Y131.791 E.63751
G1 X153.09 Y131.119 E.02119
G1 X153.254 Y130.608 E.01681
G1 X153.378 Y130.298 E.01048
G1 X153.707 Y129.774 E.01939
G1 X154.232 Y129.232 E.02368
M204 S1000
G1 X154.49 Y129.504 F10800
M204 S800
;TYPE:External perimeter
G1 F1200
G1 X155.046 Y129.149 E.02071
G1 X155.668 Y128.926 E.02071
G1 X156.339 Y128.847 E.02117
G1 X172.861 Y128.847 E.51805
G1 X173.491 Y128.917 E.01986
G1 X174.116 Y129.131 E.0207
G1 X174.677 Y129.478 E.02071
G1 X175.148 Y129.942 E.02071
G1 X175.503 Y130.498 E.02071
G1 X175.726 Y131.12 E.02071
G1 X175.805 Y131.791 E.02117
G1 X175.805 Y152.123 E.63751
G1 X175.735 Y152.753 E.01986
G1 X175.521 Y153.378 E.0207
G1 X175.174 Y153.939 E.02071
G1 X174.71 Y154.41 E.02071
G1 X174.154 Y154.765 E.02071
